icon-svg/aqara-opple.svg

<?xml version="1.0" encoding="UTF-8"?>
<svg width="24px" fill="#44739e" height="24px" viewBox="0 0 24 24" version="1.1" xmlns="http://www.w3.org/2000/svg" xmlns:xlink="http://www.w3.org/1999/xlink">
            <path d="m 8.352,16.276 c 0,-0.246 -0.149,-0.447 -0.332,-0.447 -0.183,0 -0.331,0.2 -0.331,0.447 0,0.247 0.149,0.446 0.331,0.446 0.182,0 0.332,-0.2 0.332,-0.446 z m 5.12,0.303 c 0,-0.246 -0.148,-0.447 -0.331,-0.447 -0.183,0 -0.331,0.2 -0.331,0.447 0,0.247 0.149,0.446 0.331,0.446 0.182,0 0.331,-0.2 0.331,-0.446 z M 8.329,11.824 c 0,-0.246 -0.149,-0.447 -0.331,-0.447 -0.182,0 -0.331,0.2 -0.331,0.447 0,0.247 0.148,0.446 0.331,0.446 0.183,0 0.331,-0.2 0.331,-0.446 z m 5.143,0.159 c 0,-0.246 -0.148,-0.446 -0.331,-0.446 -0.183,0 -0.331,0.2 -0.331,0.446 0,0.246 0.149,0.446 0.331,0.446 0.182,0 0.331,-0.2 0.331,-0.446 z m 0,-4.595 c 0,-0.246 -0.148,-0.447 -0.331,-0.447 -0.183,0 -0.331,0.2 -0.331,0.447 0,0.247 0.149,0.446 0.331,0.446 0.182,0 0.331,-0.2 0.331,-0.446 z M 8.329,7.529 c 0,-0.246 -0.149,-0.446 -0.331,-0.446 -0.182,0 -0.331,0.2 -0.331,0.446 0,0.246 0.148,0.446 0.331,0.446 0.183,0 0.331,-0.2 0.331,-0.446 z M 5.473,5.193 v 0.21 L 16.078,4.904 16.031,19.026 5.473,18.122 v 0.26 l 10.628,0.904 0.496,-0.213 V 4.904 L 16.138,4.634 Z M 18.653,2.2 5.267,3.16 C 4.9758677,3.1809611 4.7502945,3.4231143 4.75,3.715 v 16.01 c 8.86e-5,0.28532 0.2161312,0.524263 0.5,0.553 l 13.387,1.439 c 0.32916,0.03506 0.616079,-0.222978 0.616,-0.554 V 2.757 C 19.253971,2.4317707 18.97726,2.174891 18.653,2.2 Z M 16.68,19.128 16.115,19.37 5.39,18.458 v -0.425 l 0.138,0.011 v -0.1 L 15.887,18.8 V 14.422 L 5.528,13.994 v -0.251 l 10.359,0.465 V 9.691 H 5.528 V 9.53 L 15.887,9.412 V 5.1 L 5.528,5.622 V 5.484 L 5.39,5.49 V 5.115 L 16.159,4.55 16.68,4.857 Z M 7.547,16.276 c -0.028169,-0.291926 0.1818182,-0.552967 0.473,-0.588 0.6375534,0.132215 0.6375534,1.042785 0,1.175 C 7.7292442,16.82797 7.5194074,16.567556 7.547,16.276 Z m 5.61175,-0.272541 c 0.528327,-0.01963 0.672835,1.18278 -0.01775,1.171226 -0.593281,-0.03503 -0.580663,-1.181579 -0.0173,-1.156542 z M 7.525,11.824 C 7.4968926,11.531382 7.7080129,11.270038 8,11.236 8.6375534,11.368215 8.6375534,12.278785 8,12.411 7.7084391,12.37696 7.4974707,12.116247 7.525,11.824 Z m 5.622065,-0.425226 c 0.506369,-0.100689 0.719159,1.171768 -0.0061,1.172226 -0.594702,-0.01216 -0.617468,-1.207631 0.0061,-1.172226 z M 7.525,7.529 C 7.4974425,7.236548 7.7082903,6.9755406 8,6.941 8.2909046,6.9765318 8.5006224,7.2372381 8.473,7.529 8.5006224,7.8207619 8.2909046,8.0814682 8,8.117 7.7082903,8.0824594 7.4974425,7.821452 7.525,7.529 Z M 12.703054,7.388 C 12.686164,6.7084731 13.584156,6.5448899 13.602315,7.376315 13.642575,8.1960561 12.721213,8.1843716 12.703054,7.388 Z"/>

</svg>

<svg xmlns="http://www.w3.org/2000/svg" fill="#44739e" viewBox="0 0 24 24"><path d="M8.352 16.276c0-.246-.149-.447-.332-.447s-.331.2-.331.447.149.446.331.446.332-.2.332-.446m5.12.303c0-.246-.148-.447-.331-.447s-.331.2-.331.447.149.446.331.446.331-.2.331-.446m-5.143-4.755c0-.246-.149-.447-.331-.447s-.331.2-.331.447.148.446.331.446.331-.2.331-.446m5.143.159c0-.246-.148-.446-.331-.446s-.331.2-.331.446.149.446.331.446.331-.2.331-.446m0-4.595c0-.246-.148-.447-.331-.447s-.331.2-.331.447.149.446.331.446.331-.2.331-.446m-5.143.141c0-.246-.149-.446-.331-.446s-.331.2-.331.446.148.446.331.446.331-.2.331-.446M5.473 5.193v.21l10.605-.499-.047 14.122-10.558-.904v.26l10.628.904.496-.213V4.904l-.459-.27ZM18.653 2.2l-13.386.96a.557.557 0 0 0-.517.555v16.01a.556.556 0 0 0 .5.553l13.387 1.439a.557.557 0 0 0 .616-.554V2.757a.557.557 0 0 0-.6-.557M16.68 19.128l-.565.242-10.725-.912v-.425l.138.011v-.1l10.359.856v-4.378l-10.359-.428v-.251l10.359.465V9.691H5.528V9.53l10.359-.118V5.1l-10.359.522v-.138l-.138.006v-.375l10.769-.565.521.307Zm-9.133-2.852a.54.54 0 0 1 .473-.588c.6376.1322.6376 1.0428 0 1.175a.54.54 0 0 1-.473-.587m5.6118-.2725c.5283-.0197.6728 1.1827-.0178 1.1712-.5933-.035-.5807-1.1816-.0173-1.1566zM7.525 11.824A.54.54 0 0 1 8 11.236c.6376.1322.6376 1.0428 0 1.175a.54.54 0 0 1-.475-.587m5.622-.4252c.5064-.1007.7192 1.1717-.006 1.1722-.5947-.0122-.6175-1.2076.006-1.1722M7.525 7.529A.541.541 0 0 1 8 6.941a.541.541 0 0 1 .473.588.541.541 0 0 1-.473.588.541.541 0 0 1-.475-.588m5.178-.141c-.0168-.6795.8812-.8431.8993-.0117.0403.8198-.881.808-.8992.0117"/></svg>
